X: 37364
T: Sleamhnán Bhaile An Mhuilinn
R: jig
M: 6/8
K: Aminor
B|:c3 cBA|~B2A G2B|~c2c cBc|d2e fed|
c2c cBA|~B2A G2B|ABc dcB|1 A3 A2B:|2 A2B cde||
|:f2a fed|efe edc|d2e fed|efg a2g|
f2a fed|efe edc|B2d c2B|1 A2B cde:|2 A3 A2B||

